X:1
T:C Major Timothy Swan, 1801
T:Isaac Watts, 1717 (Psalm 93, Version 3)         668. 668.
T:Government
T:Transcribed from Swan's New England Harmony, 1801.
%%score [ 1 2 3 4 ]
L:1/8
Q:1/8=210
M:4/4
K:C
V:1 treble nm="Tr." snm="Tr."
V:2 treble nm="C." snm="C."
V:3 treble-8 nm="T." snm="T."
V:4 bass nm="B." snm="B."
V:1
 c8 | c2 c2 G2 c2 | e6 e2 | c2 A2 e2 d2 | c6 c2 | d2 e2 d2 c2 | B4 A4 | G6 G2 | dc Bd c2 e2 | %9
 e6 G2 | G2 G2 A2 A2 | %11
"^1.  might,    And  rays   of       ma – jes –ty     a        –      round. ________________________      And  rays ____  of  majesty  a – round.""^2.  sky;          E   –   ter  –  nal     is    thy  king – dom,        Lord. _________________________      E  –   ter    –  nal  is  thy kingdom, Lord.""^3.  fight,      And  dash  like  waves  a –gainst   the           shore. _________________________    And dash like waves against the shore." (B3 c d2) d2 | %12
 e2 e2 d2 g2 | c4 (3(B2 c2 d2) | c8- | c8- | c6 c2 | (e3 d c2) G2 | c2 c2 d2 d2 | e8 |] %20
V:2
"^3.  In   vain  the  noisy crowd,  Like billows fierce and loud,  Against thine empire rage and roar;  In  vain,  with  angry spite,   The  sur– ly  nations""^2. Upheld by thy commands,  The world securely stands;  And skies and stars obey thy word:  Thy throne was fixed on high  Before  the  starry""^1. The Lord Jehovah reigns,  And royal state maintains,  His head with awful glories crowned;  Arrayed in robes  of   light,   Begirt with sovereign" E8 | %1
 E2 E2 G2 G2 | G6 G2 | A2 F2 E2 G2 | G6 G2 | G2 G2 G2 G2 | F4 F4 | G6 G2 | G2 G2 E2 E2 | c6 G2 | %10
 G2 E2 F2 A2 | %11
"^1.  might,    And  rays   of       ma – jes –ty     a    –    round,      Be–girt     with     sove –reign  might,   And rays           of    majesty  a – round.""^2.  sky;          E   –   ter  –  nal     is    thy  king – dom,    Lord.      Thy throne was    fixed   on       high;      E – ter     –    nal  is thy kingdom, Lord.""^3.   fight,      And  dash  like  waves  a –gainst   the    shore.      The  sur  –  ly         na – tions  fight,      And dash like  waves  against the shore." G6 G2 | %12
 G2 G2 G2 G2 | A4 G4 | G6 G2 | c2 c2 GA GF | E6 G2 | (c4 G2) G2 | E2 c2 B2 G2 | G8 |] %20
V:3
 G8 | G2 G2 G2 G2 | c6 c2 | c2 c2 c2 d2 | e6 e2 | g2 g2 e2 e2 | f4 d4 | d6 d2 | B2 G2 c2 c2 | %9
 c6 d2 | B2 G2 d2 d2 | d6 g2 | gf fe d2 G2 | c4 d4 | e6 e2 | ef ed c2 c2 | (G4 e2) e2 | %17
 (g4 a2) g2 | e2 g2 d2 d2 | c8 |] %20
V:4
 C,8 | C,2 C,2 G,2 E,2 | C,6 C,2 | F,2 F,2 A,2 G,2 | C6 C2 | G,2 E,2 G,2 C2 | D4 D,4 | G,6 G,2 | %8
 G,2 G,2 E,2 C,2 | C,6 G,2 | E,2 E,2 D,2 D,2 | %11
"^1.  might,    And  rays   of       ma – jes –ty     a        –      round. ________________________         And  rays ____  of  majesty  a – round.""^2. sky;          E   –   ter  –  nal     is    thy  king – dom,        Lord. _________________________          E  –   ter    –  nal  is  thy kingdom, Lord.""^3.  fight,      And  dash  like  waves  a –gainst    the         shore. ________________________           And dash like waves against the shore." G,6 G,2 | %12
"^4. Let floods and nations rage,\nAnd all their powers engage;\nLet swelling tides assault the sky;\nThe terrors of thy frown\nShall beat their madness down:\nThy throne for ever stands on high." C2 C,2 D,2 E,2 | %13
 (A,2 F,2) G,4 | C,8- | %15
"^______________________________________\nEdited by B. C. Johnston, 2017\n   1. Measure 7, \nCounter\n: A-A changed to F-F.\n   2. Measure 13, Tenor: A-G F-E changed ro  G-F F-E.""^5. Thy promises are true,\nThy grace is ever new:\nThere fixed, thy church shall ne'er remove;\nThy saints with holy fear\nShall in thy courts appear,\nAnd sing thine everlasting love." C,8- | %16
 C,6 C,2 | C6 C2 | C2 E,2 G,2 G,2 | C,8 |] %20

